packages/ui-icons/src/Basic/32/Alcohol-counting_32.svg

<svg xmlns="http://www.w3.org/2000/svg" viewBox="0 0 40 40"><path d="M8 36h20v-2h-4v-6.08A7 7 0 0 0 30 21v-3h-6v-1.42A7.72 7.72 0 0 0 20 10V4h-8v6a8.19 8.19 0 0 0-4 7.06Zm20-16v1a5 5 0 0 1-10 0v-1Zm-18-2.94a6.2 6.2 0 0 1 3.45-5.58l.55-.28V6h4v5.21l.55.28A5.84 5.84 0 0 1 22 16.58V18h-6v3a7 7 0 0 0 6 6.92V34H10Z"/></svg>

<svg id="Ready" xmlns="http://www.w3.org/2000/svg" viewBox="0 0 40 40"><title>Megaicons_work_32_1.8_cp</title><path d="M8,36H28V34H24V27.92A7,7,0,0,0,30,21V18H24V16.58A7.72,7.72,0,0,0,20,10V4H12v6a8.19,8.19,0,0,0-4,7.06ZM28,20v1a5,5,0,0,1-10,0V20ZM10,17.06a6.2,6.2,0,0,1,3.45-5.58l.55-.28V6h4v5.21l.55.28A5.84,5.84,0,0,1,22,16.58V18H16v3a7,7,0,0,0,6,6.92V34H10Z"/></svg>
